X:1
T:James Gibb editions
T:Psalm 93 (Becker) - Schütz
%%score [ ( 1 2 ) ( 3 4 ) ]
L:1/8
Q:1/4=98
M:3/4
K:C
V:1 treble nm="Soprano Alto"
V:2 treble 
V:3 bass nm="Tenor Bass"
V:4 bass 
V:1
"^Cornelius Becker\n(1561-1604)""^Psalm 93, SWV 191""^Heinrich Schütz\n(1585-1672)" E2 E2 E2 | %1
w: ~Der Herr ist|
 A4 B2 | c4 c2 | B6 | B2 c2 d2 | B4 c2 | c4 B2 | c6 | G2 G2 G2 | A4 G2 | F4 F2 | E6 | G2 A2 B2 | %13
w: Kö- nig|herr- lich|schön,|in sei- nem|Schmuck sehn|wir ihn|stehn,|er hat ein|Reich ge-|fan- gen|an,|bis an der|
 c2 (d2 e2) | (A2 B2) ^G2 | A12 |] %16
w: Welt End *|soll * es|gahn.|
V:2
 C2 A,2 C2 | E4 G2 | A4 A2 | ^G6 | ^G2 A2 A2 | =G4 E2 | A2 G4 | G6 | E2 D2 E2 | F4 E2 | D4 D2 | %11
 B,6 | E2 F2 G2 | E2 G4 | F4 E2 | E12 |] %16
V:3
 A,2 C2 E2 | C4 D2 | F4 E2 | E6 | E2 E2 F2 | D4 C2 | F2 D4 | C6 | %8
"^2. Er hat es zugericht aufs best,\nsein Stuhl von nun an stehet fest,\nund bleibet bis in Ewigkeit\nohn End ist seine Herrlichkeit.\n\n3. Die Wasserström erheben sich,\nihr Brausen geht gewaltiglich,\ndie Wellen steigen in die Höh,\ngroß Ungestüm ist auf der See.\n\n4. Die Wasserwogen auf dem Meer\nsind groß und brausen greulich sehr,\ndoch ist viel größer unser Gott\nin der Höh, der Herr Zebaoth.\n\n5. Dein Wort ist eine rechte Lehr,\nwer daran glaubt, hat Freud und Ehr,\ndie Heiligkeit ist sicherlich\ndie Zierd deins Hauses ewiglich." C2 B,2 C2 | %9
 C4 C2 | A,4 A,2 | ^G,6 | C2 C2 E2 | C2 (B,2 C2) | (C2 D2) B,2 | A,12 |] %16
V:4
 A,2 A,2 A,2 | A,4 G,2 | F,4 A,2 | E,6 | E,2 A,2 D,2 | G,4 A,2 | F,2 G,4 | C,6 | C,2 G,2 C,2 | %9
 F,4 C,2 | D,4 D,2 | E,6 | C,2 F,2 E,2 | A,2 (G,2 C2) | (F,2 D,2) E,2 | A,,12 |] %16

